img/social.svg

<?xml version="1.0" encoding="UTF-8" standalone="no"?>
<svg
   xmlns:dc="http://purl.org/dc/elements/1.1/"
   xmlns:cc="http://creativecommons.org/ns#"
   xmlns:rdf="http://www.w3.org/1999/02/22-rdf-syntax-ns#"
   xmlns:svg="http://www.w3.org/2000/svg"
   xmlns="http://www.w3.org/2000/svg"
   xmlns:sodipodi="http://sodipodi.sourceforge.net/DTD/sodipodi-0.dtd"
   xmlns:inkscape="http://www.inkscape.org/namespaces/inkscape"
   version="1.1"
   viewBox="0 0 16 16"
   xml:space="preserve"
   id="svg13"
   sodipodi:docname="social2.svg"
   width="16"
   height="16"
   inkscape:version="0.92.2 2405546, 2018-03-11"><metadata
     id="metadata19"><rdf:RDF><cc:Work
         rdf:about=""><dc:format>image/svg+xml</dc:format><dc:type
           rdf:resource="http://purl.org/dc/dcmitype/StillImage" /><dc:title></dc:title></cc:Work></rdf:RDF></metadata><defs
     id="defs17" /><sodipodi:namedview
     pagecolor="#ffffff"
     bordercolor="#666666"
     borderopacity="1"
     objecttolerance="10"
     gridtolerance="10"
     guidetolerance="10"
     inkscape:pageopacity="0"
     inkscape:pageshadow="2"
     inkscape:window-width="1880"
     inkscape:window-height="993"
     id="namedview15"
     showgrid="false"
     inkscape:zoom="27.812867"
     inkscape:cx="13.066729"
     inkscape:cy="10.41647"
     inkscape:window-x="20"
     inkscape:window-y="67"
     inkscape:window-maximized="0"
     inkscape:current-layer="g10" /><g
     id="Icons"
     transform="matrix(0.45670338,0,0,0.45670338,-2.9608834,-2.9606307)"><g
       id="g10"><path
         style="fill:#000000;stroke-width:0.47350845"
         d="M 4.8300781 1.734375 C 3.8235126 1.734375 2.8175141 2.1160792 2.0546875 2.8789062 C 1.2877789 3.641733 0.90820312 4.6486619 0.90820312 5.65625 C 0.90820312 6.6597566 1.2877837 7.6727202 2.0546875 8.4355469 L 2.4453125 8.828125 L 7.7988281 14.181641 C 7.9102163 14.293029 8.0937284 14.293071 8.2050781 14.181641 L 13.554688 8.828125 L 13.949219 8.4355469 C 14.712046 7.6727202 15.091797 6.6597566 15.091797 5.65625 C 15.091797 4.6486669 14.712046 3.641733 13.949219 2.8789062 C 12.995685 1.9253726 11.662036 1.5682572 10.421875 1.8066406 C 9.6777782 1.9496705 8.9662291 2.3067857 8.3925781 2.8789062 L 8.0019531 3.2753906 L 7.6074219 2.8789062 C 6.8445948 2.1160792 5.8366432 1.734375 4.8300781 1.734375 z M 4.8144531 2.8378906 A 0.15986216 0.15986216 0 0 1 4.8300781 2.8378906 A 0.15986216 0.15986216 0 0 1 4.8632812 3.1542969 C 4.2926852 3.2640642 3.7495598 3.5375536 3.3105469 3.9765625 C 2.986103 4.2992801 2.752042 4.6786752 2.6074219 5.0839844 A 0.15986216 0.15986216 0 1 1 2.3066406 4.9765625 C 2.4666969 4.5279916 2.7251178 4.1069575 3.0839844 3.75 C 3.5693112 3.2646782 4.1721097 2.9611588 4.8027344 2.8398438 A 0.15986216 0.15986216 0 0 1 4.8144531 2.8378906 z M 2.2695312 5.9453125 A 0.15986216 0.15986216 0 0 1 2.4316406 6.1074219 C 2.4316406 6.2970045 2.4490125 6.4864546 2.484375 6.6738281 A 0.15986216 0.15986216 0 1 1 2.1699219 6.734375 C 2.1308527 6.5273486 2.1113281 6.3168332 2.1113281 6.1074219 A 0.15986216 0.15986216 0 0 1 2.2695312 5.9453125 z "
         transform="matrix(2.189605,0,0,2.189605,6.4831651,6.4826118)"
         id="path2" /></g></g></svg>

<svg width="16" height="16" version="1.1" viewBox="0 0 16 16" xml:space="preserve" xmlns="http://www.w3.org/2000/svg"><g transform="matrix(.4567 0 0 .4567 -2.9609 -2.9606)"><path transform="matrix(2.1896 0 0 2.1896 6.4832 6.4826)" d="m4.8301 1.7344c-1.0066 0-2.0126 0.3817-2.7754 1.1445-0.76691 0.76283-1.1465 1.7698-1.1465 2.7773 0 1.0035 0.37958 2.0165 1.1465 2.7793l0.39062 0.39258 5.3535 5.3535c0.11139 0.11139 0.2949 0.11143 0.40625 0l5.3496-5.3535 0.39453-0.39258c0.76283-0.76283 1.1426-1.7758 1.1426-2.7793 0-1.0076-0.37975-2.0145-1.1426-2.7773-0.95353-0.95353-2.2872-1.3106-3.5273-1.0723-0.7441 0.14303-1.4556 0.50015-2.0293 1.0723l-0.39062 0.39648-0.39453-0.39648c-0.76283-0.76283-1.7708-1.1445-2.7773-1.1445zm-0.015625 1.1035a0.15986 0.15986 0 0 1 0.015625 0 0.15986 0.15986 0 0 1 0.033203 0.31641c-0.5706 0.10977-1.1137 0.38326-1.5527 0.82227-0.32444 0.32272-0.5585 0.70211-0.70312 1.1074a0.15986 0.15986 0 1 1-0.30078-0.10742c0.16006-0.44857 0.41848-0.8696 0.77734-1.2266 0.48533-0.48532 1.0881-0.78884 1.7188-0.91016a0.15986 0.15986 0 0 1 0.011719-0.0019532zm-2.5449 3.1074a0.15986 0.15986 0 0 1 0.16211 0.16211c0 0.18958 0.017372 0.37903 0.052734 0.56641a0.15986 0.15986 0 1 1-0.31445 0.060547c-0.039069-0.20703-0.058594-0.41754-0.058594-0.62695a0.15986 0.15986 0 0 1 0.1582-0.16211z" stroke-width=".47351"/></g></svg>
